src/pages/screens/Banner/images/Mobile4part.svg

<svg width="140" height="79" viewBox="0 0 140 79" fill="none" xmlns="http://www.w3.org/2000/svg">
<g filter="url(#filter0_b_1_92)">
<rect x="0.370605" y="0.586914" width="139.36" height="77.7485" rx="10" fill="white" fill-opacity="0.1"/>
<rect x="0.870605" y="1.08691" width="138.36" height="76.7485" rx="9.5" stroke="url(#paint0_linear_1_92)"/>
<rect x="0.870605" y="1.08691" width="138.36" height="76.7485" rx="9.5" stroke="url(#paint1_linear_1_92)"/>
</g>
<rect x="5.2395" y="24.6279" width="130.232" height="49.6158" rx="5" fill="#332B50"/>
<rect x="16.8018" y="37.4155" width="60.8561" height="3.06902" rx="1.53451" fill="white" fill-opacity="0.3"/>
<rect x="16.8018" y="48.1572" width="60.8561" height="3.06902" rx="1.53451" fill="white" fill-opacity="0.3"/>
<rect x="16.8018" y="58.8989" width="60.8561" height="3.06902" rx="1.53451" fill="white" fill-opacity="0.3"/>
<rect x="5.2395" y="4.67871" width="130.232" height="15.3451" rx="5" fill="#615B78"/>
<path d="M107.56 40.2603C108.33 38.9269 110.254 38.9269 111.024 40.2603L121.852 59.0151C122.622 60.3484 121.659 62.0151 120.12 62.0151H98.4637C96.9241 62.0151 95.9618 60.3484 96.7316 59.0151L107.56 40.2603Z" fill="#667EEA"/>
<path d="M108.082 47.9291H110.314L109.942 53.4131H108.454L108.082 47.9291ZM109.198 56.4251C108.87 56.4251 108.594 56.3211 108.37 56.1131C108.154 55.8971 108.046 55.6371 108.046 55.3331C108.046 55.0291 108.154 54.7771 108.37 54.5771C108.586 54.3691 108.862 54.2651 109.198 54.2651C109.534 54.2651 109.81 54.3691 110.026 54.5771C110.242 54.7771 110.35 55.0291 110.35 55.3331C110.35 55.6371 110.238 55.8971 110.014 56.1131C109.798 56.3211 109.526 56.4251 109.198 56.4251Z" fill="#F6D365"/>
<defs>
<filter id="filter0_b_1_92" x="-3.62939" y="-3.41309" width="147.36" height="85.7485" filterUnits="userSpaceOnUse" color-interpolation-filters="sRGB">
<feFlood flood-opacity="0" result="BackgroundImageFix"/>
<feGaussianBlur in="BackgroundImage" stdDeviation="2"/>
<feComposite in2="SourceAlpha" operator="in" result="effect1_backgroundBlur_1_92"/>
<feBlend mode="normal" in="SourceGraphic" in2="effect1_backgroundBlur_1_92" result="shape"/>
</filter>
<linearGradient id="paint0_linear_1_92" x1="130.137" y1="78.3354" x2="128.588" y2="63.6256" gradientUnits="userSpaceOnUse">
<stop stop-color="white" stop-opacity="0.2"/>
<stop offset="1" stop-color="white" stop-opacity="0"/>
</linearGradient>
<linearGradient id="paint1_linear_1_92" x1="0.370605" y1="0.586914" x2="7.92778" y2="21.6079" gradientUnits="userSpaceOnUse">
<stop stop-color="white" stop-opacity="0.2"/>
<stop offset="1" stop-color="white" stop-opacity="0"/>
</linearGradient>
</defs>
</svg>

<svg width="140" height="79" fill="none" xmlns="http://www.w3.org/2000/svg"><g filter="url(#a)"><rect x=".371" y=".587" width="139.36" height="77.749" rx="10" fill="#fff" fill-opacity=".1"/><rect x=".871" y="1.087" width="138.36" height="76.749" rx="9.5" stroke="url(#b)"/><rect x=".871" y="1.087" width="138.36" height="76.749" rx="9.5" stroke="url(#c)"/></g><rect x="5.239" y="24.628" width="130.232" height="49.616" rx="5" fill="#332B50"/><rect x="16.802" y="37.416" width="60.856" height="3.069" rx="1.535" fill="#fff" fill-opacity=".3"/><rect x="16.802" y="48.157" width="60.856" height="3.069" rx="1.535" fill="#fff" fill-opacity=".3"/><rect x="16.802" y="58.899" width="60.856" height="3.069" rx="1.535" fill="#fff" fill-opacity=".3"/><rect x="5.239" y="4.679" width="130.232" height="15.345" rx="5" fill="#615B78"/><path d="M107.56 40.26c.77-1.333 2.694-1.333 3.464 0l10.828 18.755c.77 1.333-.193 3-1.732 3H98.464c-1.54 0-2.502-1.667-1.732-3L107.56 40.26z" fill="#667EEA"/><path d="M108.082 47.93h2.232l-.372 5.483h-1.488l-.372-5.484zm1.116 8.495c-.328 0-.604-.104-.828-.312a1.063 1.063 0 0 1-.324-.78c0-.304.108-.556.324-.756.216-.208.492-.312.828-.312.336 0 .612.104.828.312.216.2.324.452.324.756s-.112.564-.336.78a1.13 1.13 0 0 1-.816.312z" fill="#F6D365"/><defs><linearGradient id="b" x1="130.137" y1="78.335" x2="128.588" y2="63.626" gradientUnits="userSpaceOnUse"><stop stop-color="#fff" stop-opacity=".2"/><stop offset="1" stop-color="#fff" stop-opacity="0"/></linearGradient><linearGradient id="c" x1=".371" y1=".587" x2="7.928" y2="21.608" gradientUnits="userSpaceOnUse"><stop stop-color="#fff" stop-opacity=".2"/><stop offset="1" stop-color="#fff" stop-opacity="0"/></linearGradient><filter id="a" x="-3.629" y="-3.413" width="147.36" height="85.749" filterUnits="userSpaceOnUse" color-interpolation-filters="sRGB"><feFlood flood-opacity="0" result="BackgroundImageFix"/><feGaussianBlur in="BackgroundImage" stdDeviation="2"/><feComposite in2="SourceAlpha" operator="in" result="effect1_backgroundBlur_1_92"/><feBlend in="SourceGraphic" in2="effect1_backgroundBlur_1_92" result="shape"/></filter></defs></svg>
